html-css/module-08/img/icons/icon-plane.svg

<svg width="17" height="16"><path fill-rule="evenodd" fill="#FFF" d="M13.581 12.761a.164.164 0 01-.157.122.149.149 0 01-.047-.007L7.553 11.12a.16.16 0 01-.108-.107.16.16 0 01.032-.149l5.797-6.791-7.547 6.385a.16.16 0 01-.157.034L.608 8.93a.163.163 0 01-.112-.14.158.158 0 01.088-.155L16.262.699a.164.164 0 01.174.016.16.16 0 01.056.164l-2.911 11.882zm-5.933-.396l1.609.49a.161.161 0 01.104.098.151.151 0 01-.015.14l-1.609 2.518a.163.163 0 01-.181.068.16.16 0 01-.117-.154v-3.007a.162.162 0 01.209-.153z"/></svg>

<svg 
 xmlns="http://www.w3.org/2000/svg"
 xmlns:xlink="http://www.w3.org/1999/xlink"
 width="17px" height="16px">
<path fill-rule="evenodd"  fill="rgb(255, 255, 255)"
 d="M13.581,12.761 C13.570,12.804 13.542,12.840 13.504,12.862 C13.479,12.876 13.452,12.883 13.424,12.883 C13.408,12.883 13.392,12.881 13.377,12.876 L7.553,11.120 C7.501,11.105 7.461,11.064 7.445,11.013 C7.430,10.961 7.442,10.905 7.477,10.864 L13.274,4.073 L5.727,10.458 C5.685,10.497 5.625,10.509 5.570,10.492 L0.608,8.930 C0.546,8.910 0.502,8.855 0.496,8.790 C0.491,8.725 0.525,8.664 0.584,8.635 L16.262,0.699 C16.318,0.670 16.386,0.677 16.436,0.715 C16.485,0.754 16.507,0.818 16.492,0.879 L13.581,12.761 ZM7.648,12.365 L9.257,12.855 C9.305,12.870 9.344,12.906 9.361,12.953 C9.379,12.999 9.374,13.052 9.346,13.093 L7.737,15.611 C7.706,15.658 7.655,15.685 7.601,15.685 C7.585,15.685 7.570,15.683 7.556,15.679 C7.486,15.659 7.439,15.596 7.439,15.525 L7.439,12.518 C7.439,12.468 7.463,12.419 7.505,12.389 C7.546,12.359 7.599,12.350 7.648,12.365 Z"/>
</svg>
